X:1
T:Title
%%score 1 2
L:1/8
Q:1/4=75
M:6/8
K:Ab
V:1 treble nm="Grand Piano, Unnamed-000"
V:2 bass nm="Choir Pad, In the Garden"
V:1
 [CE][CE][A,C] [B,D][CE][CA] | [DB] [Ec]2- [Ec]3/2 z/ [DB] | [CA] [FA]2 [FA][FB][FA] | %3
w: By~Charles~Austin~Miles,~1913 * * * * *|||
 [DF] [CA]2- [CA] [CE]2 | [B,G]/[CA]/ [DB]2 [DB] [DG]2 | [DF]/[DG]/ [CA]2 [DB] [Ec]2 | %6
w: |||
 [Ec] [=DB]2 [Ac] [GB]2 | [FA] [EG]2 [FA] [GB]2- | [GB][Ec]>[DB] [CA]2 [CA] | %9
w: |||
 [CA][CG][CF] [DG]2 [DG] | [DG]2 [DE]/[DE]/ [Fd]2 [Fd] | [Fd][Ec][D_c] [E=c]3- | %12
w: |||
 [Ec]2 [CA]/[DB]/ [Ec]2 [Ec] | [=EB][EB][EG] [FA]2 [_GA] | [FA][FA][DF] [CE]<[CA][CA] | %15
w: |||
 [DG]<[DB] z/ [DB]/ [CA]3- | [CA]3 z3 |] %17
w: ||
V:2
 z A,,E, A,2 E, | A,A,,E, A,2 E, | A,A,,F, A,2 F, | A,A,,E, .A,3 | z E,G, B,2 G, | B,A,,E, A,2 E, | %6
 A,B,,F, B,2 F, | B,E,B, E [E,E]2- | [E,E][E,A,]>[E,G,] [A,,E,]2 [A,,E,] | %9
 [A,,E,][A,,E,][A,,E,] [B,,E,]2 [B,,E,] | [E,B,]2 [E,G,]/[E,G,]/ [E,G,]2 [E,G,] | %11
 [E,G,][E,G,][E,G,] [A,,A,]3- | [A,,A,]2 [A,,A,]/[A,,A,]/ [A,,A,]2 [A,,A,] | %13
 [C,G,][C,G,][C,C] [F,C]2 [E,C] | [D,D][D,D][D,A,] [E,A,]<[E,A,][E,A,] | %15
 [E,B,]<[E,G,] z/ [E,G,]/ [A,,A,]3- | [A,,A,]3 z3 |] %17

